source/img/socials.svg

<svg xmlns="http://www.w3.org/2000/svg">
  <symbol viewBox="0 0 23 16" id="icon-vk">
    <path
      d="M.07 4c0-.63.42-.96 1.27-1.01L4.6 3c.22 0 .37.09.44.27.33.91.7 1.7 1.13 2.37.41.66.95 1.43 1.63 2.3a.3.3 0 00.28.16c.1 0 .18-.04.24-.13l.07-.2.02-3.17c0-.21-.06-.36-.19-.43A1.9 1.9 0 007.53 4c-.26-.04-.4-.17-.4-.4 0-.05.02-.09.03-.11.3-.8 1.18-1.19 2.63-1.19L11 2.29c.56 0 1.02.12 1.38.35.37.23.55.6.55 1.1v4.15c.1.06.2.09.28.09.22 0 .41-.11.57-.33 1.6-1.88 2.48-3.13 2.6-3.77a1.29 1.29 0 01.55-.57c.24-.13.44-.22.62-.27a.5.5 0 01.2-.03h3.39l.21.01c.3 0 .52.12.68.35.06.07.1.15.12.24a1.57 1.57 0 01.06.4v.13c-.1.5-.36 1.03-.78 1.6-.41.57-.94 1.18-1.59 1.84-.64.66-1.04 1.09-1.2 1.3-.13.14-.2.28-.2.4 0 .1.06.2.18.33l3.2 3.36c.17.2.26.41.26.64 0 .28-.13.52-.4.7-.26.18-.57.28-.94.3l-.37.03h-3.33a.8.8 0 00-.08 0 .8.8 0 01-.1.02c-.31 0-.61-.12-.89-.35a182 182 0 01-2.06-2.16 1.1 1.1 0 00-.3-.24 25.63 25.63 0 00-.44 1.63l-.07.31c-.14.43-.45.68-.92.77l-.3.02H9.74a5.92 5.92 0 01-3.62-1.4 14.5 14.5 0 01-3.25-3.59A32.9 32.9 0 01.18 4.52C.11 4.36.07 4.2.07 4zm13.15 4.73c-.3 0-.58-.07-.83-.21-.25-.14-.37-.33-.37-.58v-4.2c0-.25-.07-.42-.22-.52-.15-.1-.4-.16-.77-.16L9.8 3.1c-.63 0-1.1.09-1.43.27.65.26.97.67.97 1.24v3.22c-.03.3-.18.56-.44.76-.26.2-.55.3-.88.3-.43 0-.77-.17-1-.53a18.47 18.47 0 01-2.54-4.1l-.2-.47-2.9-.02c-.2 0-.3.01-.33.03-.02.02-.03.07-.03.16 0 .1.02.22.04.34l.46 1.03a23.46 23.46 0 004 6.25c1.44 1.53 2.85 2.29 4.23 2.29h2.2c.08 0 .15-.02.19-.07a.52.52 0 00.1-.24l.05-.18.42-1.61c.11-.22.22-.37.3-.44.16-.14.35-.2.57-.2.35 0 .71.17 1.08.53l1.86 1.97c.11.16.24.24.37.24h3.6c.45 0 .67-.1.67-.28a.31.31 0 00-.07-.18l-3.17-3.3a1.17 1.17 0 01-.38-.83c0-.3.12-.57.35-.84.2-.25.56-.65 1.11-1.22a28.2 28.2 0 001.43-1.59c.41-.5.68-.94.81-1.34l.07-.24a.24.24 0 01-.02-.12l-.02-.14h-3.44c-.22.07-.4.18-.53.33l-.13.35c-.36.84-1.32 2.14-2.86 3.9-.31.24-.67.36-1.08.36z"
    />
  </symbol>
  <symbol viewBox="0 0 16 16" id="icon-inst">
<path d="M7.98438 0.0625C9.31771 0.0625 10.4062 0.078125 11.25 0.109375C11.9688 0.140625 12.6094 0.265625 13.1719 0.484375C13.7135 0.692708 14.1823 0.994792 14.5781 1.39062C14.974 1.78646 15.276 2.25521 15.4844 2.79687C15.7031 3.35937 15.8281 4 15.8594 4.71875C15.8906 5.5625 15.9062 6.65104 15.9062 7.98437C15.9062 9.31771 15.8906 10.4062 15.8594 11.25C15.8281 11.9687 15.7031 12.6094 15.4844 13.1719C15.276 13.7135 14.974 14.1823 14.5781 14.5781C14.1823 14.974 13.7135 15.276 13.1719 15.4844C12.6094 15.7031 11.9688 15.8281 11.25 15.8594C10.4062 15.8906 9.31771 15.9062 7.98438 15.9062C6.65104 15.9062 5.5625 15.8906 4.71875 15.8594C4 15.8281 3.35938 15.7031 2.79688 15.4844C2.25521 15.276 1.78646 14.974 1.39062 14.5781C0.994792 14.1823 0.692708 13.7135 0.484375 13.1719C0.265625 12.6094 0.140625 11.9687 0.109375 11.25C0.078125 10.4062 0.0625 9.31771 0.0625 7.98437C0.0625 6.65104 0.078125 5.5625 0.109375 4.71875C0.140625 4 0.265625 3.35937 0.484375 2.79687C0.692708 2.25521 0.994792 1.78646 1.39062 1.39062C1.78646 0.994792 2.25521 0.692708 2.79688 0.484375C3.35938 0.265625 4 0.140625 4.71875 0.109375C5.5625 0.078125 6.65104 0.0625 7.98438 0.0625ZM7.98438 1.09375C6.59896 1.09375 5.46875 1.10937 4.59375 1.14062C4.03125 1.16146 3.51042 1.26042 3.03125 1.4375C2.28125 1.75 1.75 2.28125 1.4375 3.03125C1.26042 3.51042 1.16146 4.03125 1.14062 4.59375C1.10938 5.46875 1.09375 6.59896 1.09375 7.98437C1.09375 9.36979 1.10938 10.5 1.14062 11.375C1.16146 11.9375 1.26042 12.4583 1.4375 12.9375C1.75 13.6875 2.28125 14.2187 3.03125 14.5312C3.51042 14.7083 4.03125 14.8073 4.59375 14.8281C5.46875 14.8594 6.59896 14.875 7.98438 14.875C9.36979 14.875 10.5 14.8594 11.375 14.8281C11.9375 14.8073 12.4583 14.7083 12.9375 14.5312C13.6875 14.2187 14.2188 13.6875 14.5312 12.9375C14.7083 12.4583 14.8073 11.9375 14.8281 11.375C14.8594 10.5 14.875 9.36979 14.875 7.98437C14.875 6.59896 14.8594 5.46875 14.8281 4.59375C14.8073 4.03125 14.7083 3.51042 14.5312 3.03125C14.2188 2.28125 13.6875 1.75 12.9375 1.4375C12.4583 1.26042 11.9375 1.16146 11.375 1.14062C10.5 1.10937 9.36979 1.09375 7.98438 1.09375ZM7.98438 11.1562C8.85938 11.1562 9.60677 10.8464 10.2266 10.2266C10.8464 9.60677 11.1562 8.85937 11.1562 7.98437C11.1562 7.10937 10.8464 6.36198 10.2266 5.74219C9.60677 5.1224 8.85938 4.8125 7.98438 4.8125C7.10938 4.8125 6.36198 5.1224 5.74219 5.74219C5.1224 6.36198 4.8125 7.10937 4.8125 7.98437C4.8125 8.85937 5.1224 9.60677 5.74219 10.2266C6.36198 10.8464 7.10938 11.1562 7.98438 11.1562ZM7.98438 3.92187C9.10938 3.92187 10.0677 4.31771 10.8594 5.10937C11.651 5.90104 12.0469 6.85937 12.0469 7.98437C12.0469 9.10937 11.651 10.0677 10.8594 10.8594C10.0677 11.651 9.10938 12.0469 7.98438 12.0469C6.85938 12.0469 5.90104 11.651 5.10938 10.8594C4.31771 10.0677 3.92188 9.10937 3.92188 7.98437C3.92188 6.85937 4.31771 5.90104 5.10938 5.10937C5.90104 4.31771 6.85938 3.92187 7.98438 3.92187ZM13.1719 3.76562C13.1719 4.02604 13.0781 4.2474 12.8906 4.42969C12.7031 4.61198 12.474 4.70312 12.2031 4.70312C11.9427 4.70312 11.7214 4.61198 11.5391 4.42969C11.3568 4.2474 11.2656 4.02604 11.2656 3.76562C11.2656 3.49479 11.3568 3.26562 11.5391 3.07812C11.7214 2.89062 11.9427 2.79687 12.2031 2.79687C12.4635 2.79687 12.6901 2.89323 12.8828 3.08594C13.0755 3.27865 13.1719 3.50521 13.1719 3.76562Z" fill="#666666"/>
  </symbol>
  <symbol viewBox="0 0 22 22" id="icon-fb" fill="none">
<path d="M16.5 1.83h-2.75c-1.22 0-2.38.48-3.24 1.32a4.45 4.45 0 00-1.34 3.18v2.7H6.42v3.59h2.75v7.19h3.66v-7.2h2.75l.92-3.59h-3.67v-2.7c0-.23.1-.46.27-.63.17-.17.4-.26.65-.26h2.75v-3.6z"  stroke-width="1.1" stroke-linecap="round" stroke-linejoin="round"/>
  </symbol>
  <symbol
    id="logo-text"
    width="128"
    height="24"
    viewBox="0 0 101 18"
    fill="none"
  >
    <g clip-path="url(#clip0)" fill="#111">
      <path
        d="M1.26 16.54A6.86 6.86 0 010 12.24v-6.4C-.1 4.3.3 2.77 1.19 1.47 2.05.46 3.39 0 5.37 0 7.35 0 8.61.46 9.4 1.3a5.42 5.42 0 011.19 3.78v1.54H6.72V4.85a3.7 3.7 0 00-.24-1.54 1.16 1.16 0 00-1.1-.62c-.56 0-.95.16-1.11.54a4.85 4.85 0 00-.24 1.7v8.22c-.04.56.07 1.12.32 1.62.15.38.55.54 1.1.54.56 0 .87-.16 1.03-.54.18-.52.26-1.07.24-1.62v-1.84h3.87v1.54a5.77 5.77 0 01-1.19 3.84c-.79.93-2.13 1.39-4.03 1.39-1.9-.08-3.32-.54-4.1-1.54zM15.25.23h4.5l3.33 17.54h-3.64l-.63-3.7h-2.6l-.64 3.7h-3.72L15.25.23zm3.24 11.54l-.95-6.85-.94 6.85h1.9zM25.84 3.15h-2.68V.23h9.4v2.85h-2.69v14.69h-4.03V3.15zM39.75.23h6.96v1.85h-4.5v5.77h3.63v1.77H42.2v6.46h4.5v1.77h-7.03V.23h.08zM48.76.23h1.74l5.14 11.62V.23h2.05v17.54h-1.58l-5.21-12v12h-2.14V.23zM60.06.23h6.96v1.85h-4.5v5.77h3.63v1.77H62.5v6.46h4.5v1.77h-6.95V.23zM69.07.23h3.64c1.43-.1 2.85.28 4.03 1.08C77.6 2 78 3.23 78 4.85c0 2.23-.7 3.61-2.21 4.07l2.53 8.77h-2.45L73.5 9.46h-1.98v8.23H69V.23h.08zm3.48 7.54c.81.06 1.63-.15 2.3-.62.47-.38.7-1.15.7-2.3a4.85 4.85 0 00-.23-1.7c-.18-.39-.49-.71-.87-.92a3.69 3.69 0 00-1.74-.3h-1.1v5.76h.94v.08zM81.16 16.46a7.61 7.61 0 01-1.1-4.46V6.15c-.02-1.11.11-2.22.4-3.3.26-.81.78-1.51 1.5-2 .88-.51 1.9-.75 2.92-.7 1.66 0 2.84.39 3.55 1.23a5.77 5.77 0 011.11 3.85v.62h-2.37V5.3c0-.65-.05-1.29-.16-1.93-.06-.4-.3-.76-.63-1a2.5 2.5 0 00-1.5-.38 2.42 2.42 0 00-1.58.46 1.75 1.75 0 00-.63 1.23c-.1.69-.16 1.38-.16 2.08v6.54c-.06 1 .1 2 .47 2.92.32.62.95.85 1.9.85a1.96 1.96 0 001.9-.93c.41-.97.6-2.02.55-3.07v-1.23h-2.3V9.08h4.59v8.69h-1.58l-.24-2c-.2.67-.64 1.25-1.22 1.66-.6.4-1.3.6-2.02.57a4.05 4.05 0 01-3.4-1.54zM94.68 11.62L90.8.3h2.37l2.76 8.46L98.63.3H101l-3.87 11.3v6.16h-2.37v-6.15h-.08z"
      />
    </g>
    <defs>
      <clipPath id="clip0"><path fill="#fff" d="M0 0h101v18H0z" /></clipPath>
    </defs>
  </symbol>
  <symbol
    id="icon-academy"
    width="27"
    height="34"
    viewBox="0 0 27 34"
    fill="none"
  >
    <path
      d="M13.64.02L13.5 0 0 1.4v24.61L13.5 34 27 26.01V1.41L13.64 0zm11.6 25L13.5 31.96 1.77 25.02v-10.1l11.68 6.93.02 1.25-8.02-4.75v1.23l8.04 4.8.02 1.3-8.05-4.76v1.22l8.04 4.81 8.12-4.83V16.9l3.62-2.15v10.26zm0-11.57L22 15.33l-1.48.88-7.06-4.19-.01 1.23 6.04 3.57-.06.03-.13.07-.86.5-4.98-2.95-.01 1.22 3.93 2.33-.93.61-.02.01-2.97-1.74-.01 1.23 1.94 1.13-1.98 1.19L1.8 13.58l11.63-6.96 11.8 6.83zm0-1.22L13.43 5.3 1.77 12.22V2.99L13.5 1.76 25.23 3v9.24z"
      fill="#666"
    />
  </symbol>
</svg>

<svg xmlns="http://www.w3.org/2000/svg">
  <symbol viewBox="0 0 23 16" id="icon-vk" width="23" height="16">
    <path
      d="M.07 4c0-.63.42-.96 1.27-1.01L4.6 3c.22 0 .37.09.44.27.33.91.7 1.7 1.13 2.37.41.66.95 1.43 1.63 2.3a.3.3 0 00.28.16c.1 0 .18-.04.24-.13l.07-.2.02-3.17c0-.21-.06-.36-.19-.43A1.9 1.9 0 007.53 4c-.26-.04-.4-.17-.4-.4 0-.05.02-.09.03-.11.3-.8 1.18-1.19 2.63-1.19L11 2.29c.56 0 1.02.12 1.38.35.37.23.55.6.55 1.1v4.15c.1.06.2.09.28.09.22 0 .41-.11.57-.33 1.6-1.88 2.48-3.13 2.6-3.77a1.29 1.29 0 01.55-.57c.24-.13.44-.22.62-.27a.5.5 0 01.2-.03h3.39l.21.01c.3 0 .52.12.68.35.06.07.1.15.12.24a1.57 1.57 0 01.06.4v.13c-.1.5-.36 1.03-.78 1.6-.41.57-.94 1.18-1.59 1.84-.64.66-1.04 1.09-1.2 1.3-.13.14-.2.28-.2.4 0 .1.06.2.18.33l3.2 3.36c.17.2.26.41.26.64 0 .28-.13.52-.4.7-.26.18-.57.28-.94.3l-.37.03h-3.33a.8.8 0 00-.08 0 .8.8 0 01-.1.02c-.31 0-.61-.12-.89-.35a182 182 0 01-2.06-2.16 1.1 1.1 0 00-.3-.24 25.63 25.63 0 00-.44 1.63l-.07.31c-.14.43-.45.68-.92.77l-.3.02H9.74a5.92 5.92 0 01-3.62-1.4 14.5 14.5 0 01-3.25-3.59A32.9 32.9 0 01.18 4.52C.11 4.36.07 4.2.07 4zm13.15 4.73c-.3 0-.58-.07-.83-.21-.25-.14-.37-.33-.37-.58v-4.2c0-.25-.07-.42-.22-.52-.15-.1-.4-.16-.77-.16L9.8 3.1c-.63 0-1.1.09-1.43.27.65.26.97.67.97 1.24v3.22c-.03.3-.18.56-.44.76-.26.2-.55.3-.88.3-.43 0-.77-.17-1-.53a18.47 18.47 0 01-2.54-4.1l-.2-.47-2.9-.02c-.2 0-.3.01-.33.03-.02.02-.03.07-.03.16 0 .1.02.22.04.34l.46 1.03a23.46 23.46 0 004 6.25c1.44 1.53 2.85 2.29 4.23 2.29h2.2c.08 0 .15-.02.19-.07a.52.52 0 00.1-.24l.05-.18.42-1.61c.11-.22.22-.37.3-.44.16-.14.35-.2.57-.2.35 0 .71.17 1.08.53l1.86 1.97c.11.16.24.24.37.24h3.6c.45 0 .67-.1.67-.28a.31.31 0 00-.07-.18l-3.17-3.3a1.17 1.17 0 01-.38-.83c0-.3.12-.57.35-.84.2-.25.56-.65 1.11-1.22a28.2 28.2 0 001.43-1.59c.41-.5.68-.94.81-1.34l.07-.24a.24.24 0 01-.02-.12l-.02-.14h-3.44c-.22.07-.4.18-.53.33l-.13.35c-.36.84-1.32 2.14-2.86 3.9-.31.24-.67.36-1.08.36z"
      fill="#666"
    />
  </symbol>
  <symbol viewBox="0 0 16 16" id="icon-inst" width="16" height="16">
    <path
      d="M7.98.06c1.34 0 2.43.02 3.27.05a6 6 0 011.92.37 3.99 3.99 0 012.31 2.32 6 6 0 01.38 1.92 91.88 91.88 0 010 6.53 6 6 0 01-.38 1.92 3.99 3.99 0 01-2.3 2.31 6 6 0 01-1.93.38 91.88 91.88 0 01-6.53 0 6 6 0 01-1.92-.38 3.99 3.99 0 01-2.32-2.3 6 6 0 01-.37-1.93 91.73 91.73 0 010-6.53A6 6 0 01.48 2.8 3.99 3.99 0 012.8.48 6 6 0 014.72.11C5.56.08 6.65.06 7.98.06zm0 1.03c-1.38 0-2.51.02-3.39.05-.56.02-1.08.12-1.56.3-.75.31-1.28.84-1.6 1.6-.17.47-.27 1-.29 1.55a98.83 98.83 0 000 6.79c.02.56.12 1.08.3 1.56.31.75.84 1.28 1.6 1.6.47.17 1 .27 1.55.29a98.66 98.66 0 006.79 0 5.01 5.01 0 001.56-.3 2.85 2.85 0 001.6-1.6c.17-.47.27-1 .29-1.55a98.66 98.66 0 000-6.79 5.01 5.01 0 00-.3-1.56 2.85 2.85 0 00-1.6-1.6c-.47-.17-1-.27-1.55-.29-.88-.03-2.01-.05-3.4-.05zm0 10.07c.88 0 1.63-.31 2.25-.93.62-.62.93-1.37.93-2.25 0-.87-.31-1.62-.93-2.24a3.06 3.06 0 00-2.25-.93c-.87 0-1.62.31-2.24.93a3.06 3.06 0 00-.93 2.24c0 .88.31 1.63.93 2.25.62.62 1.37.93 2.24.93zm0-7.24c1.13 0 2.09.4 2.88 1.19.8.8 1.19 1.75 1.19 2.87 0 1.13-.4 2.09-1.2 2.88-.78.8-1.74 1.19-2.87 1.19-1.12 0-2.08-.4-2.87-1.2a3.92 3.92 0 01-1.19-2.87c0-1.12.4-2.08 1.19-2.87.8-.8 1.75-1.19 2.87-1.19zm5.2-.15a.95.95 0 01-.97.94.9.9 0 01-.67-.28.9.9 0 01-.27-.66.95.95 0 01.93-.97c.26 0 .49.1.68.29.2.19.3.42.3.68z"
      fill="#666"
    />
  </symbol>
  <symbol viewBox="0 0 22 22" id="icon-fb" width="22" height="22" fill="none">
    <path
      d="M16.5 1.83h-2.75c-1.22 0-2.38.48-3.24 1.32a4.45 4.45 0 00-1.34 3.18v2.7H6.42v3.59h2.75v7.19h3.66v-7.2h2.75l.92-3.59h-3.67v-2.7c0-.23.1-.46.27-.63.17-.17.4-.26.65-.26h2.75v-3.6z"
      stroke="#666"
      stroke-width="1.1"
      stroke-linecap="round"
      stroke-linejoin="round"
    />
  </symbol>
  <symbol
    id="logo-text"
    width="128"
    height="24"
    viewBox="0 0 101 18"
    fill="none"
  >
    <g clip-path="url(#clip0)" fill="#111">
      <path
        d="M1.26 16.54A6.86 6.86 0 010 12.24v-6.4C-.1 4.3.3 2.77 1.19 1.47 2.05.46 3.39 0 5.37 0 7.35 0 8.61.46 9.4 1.3a5.42 5.42 0 011.19 3.78v1.54H6.72V4.85a3.7 3.7 0 00-.24-1.54 1.16 1.16 0 00-1.1-.62c-.56 0-.95.16-1.11.54a4.85 4.85 0 00-.24 1.7v8.22c-.04.56.07 1.12.32 1.62.15.38.55.54 1.1.54.56 0 .87-.16 1.03-.54.18-.52.26-1.07.24-1.62v-1.84h3.87v1.54a5.77 5.77 0 01-1.19 3.84c-.79.93-2.13 1.39-4.03 1.39-1.9-.08-3.32-.54-4.1-1.54zM15.25.23h4.5l3.33 17.54h-3.64l-.63-3.7h-2.6l-.64 3.7h-3.72L15.25.23zm3.24 11.54l-.95-6.85-.94 6.85h1.9zM25.84 3.15h-2.68V.23h9.4v2.85h-2.69v14.69h-4.03V3.15zM39.75.23h6.96v1.85h-4.5v5.77h3.63v1.77H42.2v6.46h4.5v1.77h-7.03V.23h.08zM48.76.23h1.74l5.14 11.62V.23h2.05v17.54h-1.58l-5.21-12v12h-2.14V.23zM60.06.23h6.96v1.85h-4.5v5.77h3.63v1.77H62.5v6.46h4.5v1.77h-6.95V.23zM69.07.23h3.64c1.43-.1 2.85.28 4.03 1.08C77.6 2 78 3.23 78 4.85c0 2.23-.7 3.61-2.21 4.07l2.53 8.77h-2.45L73.5 9.46h-1.98v8.23H69V.23h.08zm3.48 7.54c.81.06 1.63-.15 2.3-.62.47-.38.7-1.15.7-2.3a4.85 4.85 0 00-.23-1.7c-.18-.39-.49-.71-.87-.92a3.69 3.69 0 00-1.74-.3h-1.1v5.76h.94v.08zM81.16 16.46a7.61 7.61 0 01-1.1-4.46V6.15c-.02-1.11.11-2.22.4-3.3.26-.81.78-1.51 1.5-2 .88-.51 1.9-.75 2.92-.7 1.66 0 2.84.39 3.55 1.23a5.77 5.77 0 011.11 3.85v.62h-2.37V5.3c0-.65-.05-1.29-.16-1.93-.06-.4-.3-.76-.63-1a2.5 2.5 0 00-1.5-.38 2.42 2.42 0 00-1.58.46 1.75 1.75 0 00-.63 1.23c-.1.69-.16 1.38-.16 2.08v6.54c-.06 1 .1 2 .47 2.92.32.62.95.85 1.9.85a1.96 1.96 0 001.9-.93c.41-.97.6-2.02.55-3.07v-1.23h-2.3V9.08h4.59v8.69h-1.58l-.24-2c-.2.67-.64 1.25-1.22 1.66-.6.4-1.3.6-2.02.57a4.05 4.05 0 01-3.4-1.54zM94.68 11.62L90.8.3h2.37l2.76 8.46L98.63.3H101l-3.87 11.3v6.16h-2.37v-6.15h-.08z"
      />
    </g>
    <defs>
      <clipPath id="clip0"><path fill="#fff" d="M0 0h101v18H0z" /></clipPath>
    </defs>
  </symbol>
  <symbol
    id="icon-academy"
    width="27"
    height="34"
    viewBox="0 0 27 34"
    fill="none"
  >
    <path
      d="M13.64.02L13.5 0 0 1.4v24.61L13.5 34 27 26.01V1.41L13.64 0zm11.6 25L13.5 31.96 1.77 25.02v-10.1l11.68 6.93.02 1.25-8.02-4.75v1.23l8.04 4.8.02 1.3-8.05-4.76v1.22l8.04 4.81 8.12-4.83V16.9l3.62-2.15v10.26zm0-11.57L22 15.33l-1.48.88-7.06-4.19-.01 1.23 6.04 3.57-.06.03-.13.07-.86.5-4.98-2.95-.01 1.22 3.93 2.33-.93.61-.02.01-2.97-1.74-.01 1.23 1.94 1.13-1.98 1.19L1.8 13.58l11.63-6.96 11.8 6.83zm0-1.22L13.43 5.3 1.77 12.22V2.99L13.5 1.76 25.23 3v9.24z"
      fill="#666"
    />
  </symbol>
</svg>
